X:1
T:Canção da Promessa Escoteira
T:Canção da Promessa Escoteira
T:Arranjo para Trio
T:Baden Powell
T:Baden Powell
T:Lucas Oliveira
C:Baden Powell
Z:Baden Powell
Z:Lucas Oliveira
%%score 1 2 3
L:1/8
Q:3/8=60
M:6/8
K:C
V:1 treble nm="Flauta Transversal" snm="Fl."
V:2 treble-8 nm="Violão" snm="Viol."
V:3 bass transpose=-12 nm="Baixo Elétrico de 5 cordas" snm="B. El."
V:1
 c |: c2 d e2 f | g2 c' g3 | e3 e2 d |1 d6 :|2 c3- c2 c || a2 g a2 c' | g2 f g3 | f3 fag | %9
w: Pro-|me- to nes- se|di- a- *|cum- prir a|lei|||||
w: |Sou teu es- co-|te- i- ro|se- nhor e-||morrer * eu|t'a- ma- re- i|pra sem- pre|ca- da- * vez|
w: Da|fé eu sin- to'r-|gu- * lho|que- ro vi-|ver|||||
w: |Tal como en- si-|nas- * te|a- té *||||||
 g3- g2 c | a2 g a2 c' | g2 !^!a g3 | d3 dfe | c3- c3 |] %14
w: |||||
w: ma- is se-|nhor mi- nha pro-|mes- * sa|pro- te- * ge-|ras *|
w: |||||
w: |||||
V:2
 z |: CGc ecG | CGc ecG | A,Ac ecA |1 G,GB gBG :|2 CGc ecG || F,Ac fcA | CGc ecG | G,GB gBG | %9
 CGc ecG | F,Ac fcA | CGc ecG | G,GB gBG | CGc ecG |] %14
V:3
 z |: C,6 | C,4- C,B,, | A,,4- A,,B,, |1 G,,6 :|2 C,4- C,A,, || F,,4- F,,A,, | C,4- C,B,, | %8
w: |33|* * 32|30 * 32|43|33 * 30|41 * 30|33 * 32|
 G,,4- G,,B,, | C,4- C,A,, | F,,4- F,,A,, | C,4- C,B,, | G,,4- G,,B,, | C,6 |] %14
w: 43 * 32|33 * 30|41 * 30|33 * 32|43 * 32|33|

